X:1
T:Alma Redemptoris
T:Alma Redemptoris
T:Giovanni Felice Sances
T:Source : Antifone e Litanie a piu voci di G.F.Sances---Venetia---B.Magni---1640. Editor : André Vierendeels (04/08/15).
T:Notes : Original clefs : C4, F4 Editorial accidentals above the staff "A doi Basso e Tenore overo Canto" 
C:Giovanni Felice Sances
%%score [ 1 2 ]
L:1/8
Q:1/4=84
M:4/4
K:C
V:1 treble-8 nm="Tenor" snm="T"
V:2 bass nm="Bass" snm="B"
V:1
 z8 | z8 | z8 | z4 d4- | de d>c B4 | A4 z2 DE | FGAB ^cA d2- | d2 ^c2 d4 | z8 | z4 e4 | ef e>d c4 | %11
w: |||Al-|* * * * ma|_ Re- dem-|pto- ris, Re- dem- pto- ris Ma-|* * ter,||Al-||
 B2 d3 e d>c | B4 A2 DE | FGAB c4- | cB/A/ GA B3 B | A4 B4 | z2 B2 B2 cd | %17
w: ma, al- * * *|* ma Re- dem-|pto- ris, Re- dem- pto-|* * * * * * ris|Ma- ter,|que per- vi- a|
 e2 e2 e/f/e/d/ c/d/c/B/ | A/B/A/G/ F/G/F/E/ D3 E | E4 D4 | z8 | z8 | z8 | z2 G2 G2 AB | c2 c2 z4 | %25
w: Ce- li por- * * * * * * *|* * * * * * * * * ta|ma- nes,||||que per- vi- a|Ce- li,|
 z2 A2 A2 Bc | d2 d2 z2 d/e/d/c/ | B/c/B/A/ G/A/G/F/ E/F/E/D/ C>D | %28
w: que per- vi- a|Ce- li por- * * *||
 EF/G/ A/B/c/d/ e/f/e/d/ c/d/c/B/ | A/B/A/G/ ^F/G/F/E/ DE/F/ G/A/B/c/ | d2- d/e/d/c/ B2- B/c/B/A/ | %31
w: |||
 G2 c/B/c/d/ B4 | A4 z4 | z2 A2 A2 Bc | d2 d2 d/e/d/c/ B/c/B/A/ | %35
w: * ta _ _ _ ma-|nes,|qui per- vi- a|Ce- li por- * * * * * * *|
 G/A/G/F/ E/F/E/D/ CD/E/ F/G/A/B/ | c/d/c/B/ A/B/A/G/ ^F/D/E/F/ G/A/B/c/ | %37
w: ||
 d2- d/e/d/c/ B/c/B/A/ G2- | G/A/G/F/ EF/G/ A/B/c/d/ ee | z ABG A4 | B4 z4 | %41
w: |* * * * * * * * * * * * ta|ma- * * *|nes.|
"^Presto" z ede (3cBA (3BAG | (3AGA (3Bcd (3edc (3dcB | (3cCD (3EFG (3AGA (3BAB | %44
w: Et stella ma- * * * * * *|||
 (3cde (3fef (3gag (3fef | d4 c4 | e8 | e8 | e8 | e8- | e2 d2 e4 |"^Adagio" z2 B2 c2 cd | %52
w: |* ris,-|et-|stel-|la|ma-|* * ris,|su- cur- re, su-|
 e2 e2 z4 | z8 | z gfe dc BA | GG FE D4 | E2 G2 A2 BB | c2 c2 z2 A2 | B2 cc d2 d2 | z8 | z4 z dcB | %61
w: cur- re||ca- * * * * * *|* * * * den-|ti, su- cur- re, su-|cur- re, *|cur- re, su- cur- re,||ca- * *|
 AG ^FE Dd cA | _B4 A4 | G8 | z8 | z8 | z2 z E ^FA A>^G | A3 A Bd d>^c | d3 D EG G>^F | %69
w: |den- *|ti,|||qui cu- rat po- pu-|lo, qui cu- rat po- pu-|lo, qui cu- rat po- pu-|
 G4 d/e/d/c/ B>B | A2 z2 z4 | c/d/c/B/ A>A G2 z2 | f/g/f/e/ d>d c2 z2 | d/e/d/c/ B>B A3 A | %74
w: lo sur- * * * * ge-|re,|sur- * * * * ge- re,|sur- * * * * ge- re,|sur- * * * * ge- re qui|
 Bd d>^c d3 d | cd Bc A3 A | A4 AAAA | A2 AB c2 cB | B4 B2 Bc | dccB B4 | A4 GGGG | G2 GA B2 BA | %82
w: cu- rat po- pu- lo, qui|cu- * rat _ po- pu-|lo: tu quae ge- nu-|i- sti na- tu- ra mi-|ran- te, tu- um|san- ctum Ge- ni- to-|rem, tu quae ge- nu-|i- sti na- tu- ra mi-|
 A4 A2 AB | cBBA A4 | G4 ddee |"^-natural" ^cc d/c/B/A/ B/A/G/^F/ G>G | ^F4 z4 | z8 | %88
w: ran- te, tu- um|san- ctum Ge- ni- to-|rem, Vir- go pri- us|ac po- ste- * * * * * * * * ri-|us,||
 z2 ee ^ff^dd |"^#" e/d/^c/B/ c/B/A/^G/ A3 A | B4 z4 | z8 | z4 z2 A2- | A/B/A/G/ ^F/G/F/E/ DDGG | %94
w: Vir- go pri- us ac po-|ste- * * * * * * * * ri-|us,||su-|* * * * * * * * * mens il- lud|
 G3 ^F- G2 d2- | d/e/d/c/ B/c/B/A/ GGcc | c3 B- c4 | z2 e2- e/f/e/d/ c/d/c/B/ | AAcc B4 | %99
w: a- ve, _ su-|* * * * * * * * * mens il- lud|a- ve, _|su- * * * * * * * *|* mens il- lud a-|
 A2 AG F2 ED | A4 D2 dc | B2 AG d4 | G4 z4 | z2 G2- G/A/G/F/ E/F/E/D/ | CC e2- e/f/e/d/ c/d/c/B/ | %105
w: ve Ga- bri- e- lis ab|o- re, Ga- bri-|e- lis ab o-|re|su- * * * * * * * *|* mens, su- * * * * * * * *|
 AAcc B4 | A4 z4 | z8 | AABB ^cc d2- | d2 ^c2 d2 GG | AABB c4 | B2 DD EE^FF | G3 A/G/ F4 | %113
w: * mens il- lud a-|ve,||pec- ca- to- rum mi- se- re-|* * re, pec- ca-|to- rum mi- se- re-|re, pec- ca- to- rum mi- se-|re- * * *|
 E2 GG AABB | c3 d/c/ _B4 | A4 AABB | ^cc d4 c2 | d2 GG AABB | c4 B4 | z2 Bd A4 | !fermata!B8 |] %121
w: re, pec- ca- to- rum mi- se-|re- * * *|re, pec- ca- to- rum|mi- se- re- *|re, pec- ca- to- rum mi- se-|re- re,|mi- se- re-|re.|
V:2
 z4 G,4- | G,A, G,>F, E,4 | D,4 z2 G,,A,, | B,,C,D,E, ^F,D, G,2- | G,2 ^F,2 G,4 | z8 | z4 A,4- | %7
w: Al-||ma Re- dem-|pto- ris, Re- dem- pto- ris Ma-|* * ter,||Al-|
 A,B, A,>G, F,4 | E,4 z2 A,,B,, | C,D,E,^F, ^G,E, A,2- | A,2 ^G,2 A,4 | z2 B,3 C B,>A, | G,4 F,4 | %13
w: |ma Re- dem-|pto- ris, Re- dem- pto- ris Ma-|* * ter,|Al- * * *|* ma|
 z4 z2 A,,B,, | C,D,E,^F, G,D, G,2- | G,2 ^F,2 G,4 | z8 | z8 | z8 | z4 z2 D,2 | D,2 E,^F, G,2 G,2 | %21
w: Re- dem-|pto- ris, Re- dem- pto- ris Ma-|* * ter,||||que|per- vi- a Ce- li|
 G,/A,/G,/F,/ E,/F,/E,/D,/ C,/D,/C,/B,,/ A,,/B,,/A,,/G,,/ | F,,2 E,,2 G,,4 | C,4 z4 | %24
w: por- * * * * * * * * * * * * * * *|* ta ma-|nes,|
 z2 A,,2 A,,2 B,,C, | D,2 D,2 z4 | z2 D,2 D,2 E,^F, | G,2 G,G, G,2 A,B, | %28
w: que per- vi- a|Ce- li,|qui per- vi- a|Ce- li, qui per- vi- a|
 C2 C2 C/D/C/B,/ A,/B,/A,/G,/ | ^F,/G,/F,/E,/ D,/E,/D,/C,/ B,,/C,/B,,/A,,/ G,,2- | %30
w: Ce- li por- * * * * * * *||
 G,,A,,/B,,/ C,/D,/E,/^F,/ G,2- G,/A,/G,/F,/ | E,E, A,4 ^G,2 | A,2 A,,2 A,,2 B,,^C, | %33
w: |* ta ma- *|nes, qui per- vi- a|
 D,2 D,^F, F,2 G,A, | B,2 B,2 B,/C/B,/A,/ G,/A,/G,/F,/ | %35
w: Ce- li, qui per- vi- a|Ce- li por- * * * * * * *|
 E,/F,/E,/D,/ C,/D,/C,/B,,/ A,,B,,/C,/ D,/E,/F,/G,/ | %36
w: |
 A,/B,/A,/G,/ ^F,/G,/F,/E,/ D,/E,/D,/C,/ B,,/C,/B,,/A,,/ | %37
w: |
 G,,A,,/B,,/ C,/D,/E,/F,/ G,2- G,/A,/G,/F,/ | E,/F,/E,/D,/ C,D,/E,/ F,/G,/A,/B,/ CE, | %39
w: |* * * * * * * * * * * * ta|
 ^F,D, G,4 F,2 | G,4 z4 |"^Presto" C8 | C8 | C8 | C8- | C2 B,2 C4 | z CB,C (3A,G,F, (3E,D,E, | %47
w: ma- * * *|nes.|Et|stel-|la|ma-|* * ris,|et stel- la ma- * * * * *|
 (3C,B,,A,, (3B,,A,,G,, (3A,,C,D, (3E,^F,^G, | (3A,^G,A, (3B,A,B, (3CB,A, (3B,A,G, | %49
w: ||
 (3A,CB, (3A,G,F, (3E,D,E, (3C,D,E, | F,4 E,4 |"^Adagio" z2 E,2 A,2 A,B, | C2 C2 z CB,A, | %53
w: |* ris,|su- cur- re, su-|cur- re ca- * *|
 G,F, E,D, C,C, B,,A,, | G,,8- | G,,8 | C,2 E,2 ^F,2 ^G,G, | A,2 A,2 z2 ^F,2 | G,2 A,A, B,2 B,2 | %59
w: |den-||ti, su- cur- ren, su-|cur- re, su-|cur- re, su- cur- re|
 z G,F,E, D,C, B,,A,, | G,,G,,F,,E,, D,,4- | D,,8- | D,,8 | G,,8 | %64
w: ca- * * * * * *|* * * * den-|||ti,|
 G,/A,/G,/F,/ E,>E, D,2 D,/E,/D,/C,/ | B,,>B,, A,,2 A,/B,/A,/G,/ ^F,>F, | E,4 z4 | z8 | z8 | %69
w: sur- * * * * ge- re, sur- * * *|* ge- re, sur- * * * * ge-|re,|||
 G,/A,/G,/F,/ E,>E, D,2 z2 | A,/B,/A,/G,/ ^F,>F, E,4 | A,/B,/A,/G,/ ^F,>F, G,3 G, | %72
w: sur- * * * * ge- re,|sur- * * * * ge- re,|sur- * * * * ge- re, qui|
 A,C C>B, C3 E, | ^F,A, A,>^G, A,4 | G,/A,/G,/^F,/ E,>E, D,3 D, | E,2 G,2 ^F,3 F, | ^F,4 F,F,F,F, | %77
w: cu- rat po- pu- lo, qui|cu- rat po- pu- lo,|sur- * * * * ge- re, qui|cu- rat po- pu-|lo: tu quae ge- nu-|
 ^F,2 F,G, A,2 A,A, | G,4 G,2 G,A, | B,A,A,A, A,3 ^G, | A,4 E,E,E,E, | E,2 E,^F, G,2 G,F, | %82
w: i- sti na- tu- ra mi-|ran- te, tu- um|san- ctum Ge- ni- to- *|rem, tu quae ge- nu-|i- sti na- tu- ra mi-|
 ^F,4 F,2 F,G, | A,G,G,G, G,3 ^F,- | G,4 z4 | z8 | z2 A,A, B,B,^G,G, | %87
w: ran- te, tu- um|san- ctum Ge- ni- to- *|rem,||Vir- go pri- us ac po-|
"^#" A,/G,/F,/E,/ ^F,/E,/D,/C,/ D,3 D, | ^C,4 A,A,B,B, | ^G,G, A,/G,/F,/E,/ ^F,3 F, | %90
w: ste- * * * * * * * * ri-|us, Vir- go pri- us|ac po- ste- * * * * ri-|
 E,2 E,D, ^C,2 B,,A,, | E,4 A,,2 A,G, | ^F,2 E,D, A,4 | D,2 D,C, B,,2 A,,G,, | D,4 G,,4 | z8 | %96
w: us, Ga- bri- e- lis ab|o- re, Ga- bri-|e- lis ab o-|re, Ga- bri- e- lis ab|o- re,||
 z2 G,2- G,/A,/G,/F,/ E,/F,/E,/D,/ | C,C, C2- C/D/C/B,/ A,/B,/A,/G,/ | ^F,F,A,A, A,3 ^G, | A,4 z4 | %100
w: su- * * * * * * * *|* mens, su- * * * * * * * *|* mens il- lud a- *|ve,|
 z2 A,2- A,/B,/A,/G,/ ^F,/G,/F,/E,/ | D,D,G,G, G,3 ^F,- |"^-natural" G,2 G,F, E,2 D,C, | G,4 C,4 | %104
w: su- * * * * * * * *|* mens il- lud a- ve,|_ Ga- bri- e- lis ab|o- re,|
 z2 C2- C/D/C/B,/ A,/B,/A,/G,/ | F,^F,A,A, A,3 ^G, | A,4 A,,A,,B,,B,, | ^C,C, D,4 C,2 | D,4 z4 | %109
w: su- * * * * * * * *|* mens il- lud a- ve,|_ pec- ca- to- rum|mi- se- re- *|re,|
 z4 D,D,E,E, | ^F,F, G,4 F,2 | G,4 G,,G,,A,,A,, | B,,B,, C,4 B,,2 | C,4 C,C,D,D, | E,E, F,4 E,2 | %115
w: pec- ca- to- rum|mi- se- re- *|re,- pec- ca- to- rum|mi- se- re- *|re, pec- ca- to- rum|mi- se- re- *|
 F,4 z4 | z8 | D,D,E,E, ^F,F, G,2- | G,2 ^F,2 G,2 G,B, | B,,3 C, D,4 | !fermata!G,,8 |] %121
w: re,||pec- ca- to- rum mi- se- re-|* * re, mi- se-|se- * *|re.|

